X:1020
T:Bourree 1
T:Tune
C:Andrew Swaine
M:2/4
L:1/8
K:F
P:A
"Dm"d2 dc|A2 zA|"Am/d(D9)"d>c de|f2 e2|\
"Gm"d2 dc|"Gm/e"A2 zB|"A7"A>G FE|"Dm"D2 z2:|
P:B
|:"Gm"B>A GB|"A7"A>G FE|"Dm"D>E F/2E/2D|"D7/f#"A2 zA|\
"Gm"B>A GB|"A7"A>G FE|1"Dm".D2 A2|A2 A2:|2"Dm".D2 d2|d2 d2:|
T:Harmony
P:A
"Dm"D2 zD|D2 zD|"D9"D2 E2|F2 ^F2|\
"Gm"G2 zG|"Gm/e"E2 zE|"A7"A>G FE|"Dm"D2 z2:|
P:B
|:"Gm"G>F ED|"A7"^C>D EC|"Dm"D>^C DE|"D7/f#"^F2 zF|\
"Gm"G>F ED|"A7"^C>D EC|"Dm".D2 z2|z4||

